uploads/global/user-card.svg

<svg fill="none" height="69" viewBox="0 0 69 69" width="69" xmlns="http://www.w3.org/2000/svg" xmlns:xlink="http://www.w3.org/1999/xlink"><clipPath id="a"><path d="m0 0h69v69h-69z"/></clipPath><g clip-path="url(#a)"><path d="m52.4396 8.28003v52.43997h-41.4v5.52h46.92v-57.95997z" fill="#cdecf9"/><g fill="#06a0e3"><path d="m57.9598 5.52002h-46.92c-.732 0-1.43403.29078-1.95163.80838-.5176.51761-.80838 1.21962-.80838 1.95162v57.95998c0 .732.29078 1.434.80838 1.9516s1.21963.8084 1.95163.8084h46.92c.732 0 1.434-.2908 1.9516-.8084s.8084-1.2196.8084-1.9516v-57.95998c0-.732-.2908-1.43401-.8084-1.95162-.5176-.5176-1.2196-.80838-1.9516-.80838zm0 60.71998h-46.92v-57.95998h46.92z"/><path d="m34.4996 30.3601c1.3647 0 2.6988-.4047 3.8335-1.1629s2.019-1.8358 2.5413-3.0966c.5222-1.2608.6589-2.6482.3926-3.9867-.2662-1.3384-.9234-2.5679-1.8883-3.5329-.965-.965-2.1945-1.6221-3.533-1.8884-1.3384-.2662-2.7258-.1296-3.9866.3927-1.2608.5222-2.3384 1.4066-3.0966 2.5413s-1.1629 2.4688-1.1629 3.8335c0 1.83.727 3.585 2.021 4.879s3.049 2.021 4.879 2.021zm0-11.04c.8188 0 1.6193.2428 2.3001.6977s1.2114 1.1015 1.5248 1.858c.3133.7564.3953 1.5889.2356 2.3919-.1598.8031-.5541 1.5408-1.1331 2.1198s-1.3166.9733-2.1197 1.133c-.8031.1598-1.6355.0778-2.392-.2356-.7565-.3133-1.4031-.844-1.858-1.5248s-.6977-1.4812-.6977-2.3c.0013-1.0977.4378-2.15 1.214-2.9261.7761-.7761 1.8284-1.2127 2.926-1.2139z"/><path d="m46.7816 46.92c.072-.457.1181-.9178.138-1.38 0-3.294-1.3085-6.4531-3.6377-8.7823s-5.4883-3.6377-8.7823-3.6377-6.4531 1.3085-8.7823 3.6377-3.6377 5.4883-3.6377 8.7823c.0199.4622.066.923.138 1.38zm-12.282-11.04c2.3221.003 4.5658.8411 6.3212 2.3612s2.9056 3.6209 3.2405 5.9188h-19.1235c.3349-2.2979 1.4851-4.3987 3.2405-5.9189 1.7555-1.5201 3.9991-2.3581 6.3213-2.3611z"/><path d="m23.4596 55.1999h22.08c.366 0 .717-.1453.9758-.4041s.4042-.6099.4042-.9759-.1454-.717-.4042-.9758-.6098-.4042-.9758-.4042h-22.08c-.366 0-.717.1454-.9758.4042s-.4042.6098-.4042.9758.1454.7171.4042.9759.6098.4041.9758.4041z"/><path d="m26.2198 2.76h16.56c.366 0 .7171-.14539.9759-.40419s.4041-.60981.4041-.97581-.1453-.717007-.4041-.975807c-.2588-.258801-.6099-.404193-.9759-.404193h-16.56c-.366 0-.717.145392-.9758.404193-.2588.2588-.4042.609807-.4042.975807s.1454.71701.4042.97581.6098.40419.9758.40419z"/></g></g></svg>

<svg width="69" height="69" viewBox="0 0 69 69" fill="none" xmlns="http://www.w3.org/2000/svg">
<g clip-path="url(#clip0)">
<path d="M52.4396 8.28003V60.72H11.0396V66.24H57.9596V8.28003H52.4396Z" fill="#CDECF9"/>
<path d="M57.9598 5.52002H11.0398C10.3078 5.52002 9.60577 5.8108 9.08817 6.3284C8.57057 6.84601 8.27979 7.54802 8.27979 8.28002V66.24C8.27979 66.972 8.57057 67.674 9.08817 68.1916C9.60577 68.7092 10.3078 69 11.0398 69H57.9598C58.6918 69 59.3938 68.7092 59.9114 68.1916C60.429 67.674 60.7198 66.972 60.7198 66.24V8.28002C60.7198 7.54802 60.429 6.84601 59.9114 6.3284C59.3938 5.8108 58.6918 5.52002 57.9598 5.52002V5.52002ZM57.9598 66.24H11.0398V8.28002H57.9598V66.24Z" fill="#06A0E3"/>
<path d="M34.4996 30.3601C35.8643 30.3601 37.1984 29.9554 38.3331 29.1972C39.4678 28.439 40.3521 27.3614 40.8744 26.1006C41.3966 24.8398 41.5333 23.4524 41.267 22.1139C41.0008 20.7755 40.3436 19.546 39.3787 18.581C38.4137 17.616 37.1842 16.9589 35.8457 16.6926C34.5073 16.4264 33.1199 16.563 31.8591 17.0853C30.5983 17.6075 29.5207 18.4919 28.7625 19.6266C28.0043 20.7613 27.5996 22.0954 27.5996 23.4601C27.5996 25.2901 28.3266 27.0451 29.6206 28.3391C30.9146 29.6331 32.6696 30.3601 34.4996 30.3601ZM34.4996 19.3201C35.3184 19.3201 36.1189 19.5629 36.7997 20.0178C37.4805 20.4727 38.0111 21.1193 38.3245 21.8758C38.6378 22.6322 38.7198 23.4647 38.5601 24.2677C38.4003 25.0708 38.006 25.8085 37.427 26.3875C36.848 26.9665 36.1104 27.3608 35.3073 27.5205C34.5042 27.6803 33.6718 27.5983 32.9153 27.2849C32.1588 26.9716 31.5122 26.4409 31.0573 25.7601C30.6024 25.0793 30.3596 24.2789 30.3596 23.4601C30.3609 22.3624 30.7974 21.3101 31.5736 20.534C32.3497 19.7579 33.402 19.3213 34.4996 19.3201V19.3201Z" fill="#06A0E3"/>
<path d="M46.7816 46.92C46.8536 46.463 46.8997 46.0022 46.9196 45.54C46.9196 42.246 45.6111 39.0869 43.2819 36.7577C40.9527 34.4285 37.7936 33.12 34.4996 33.12C31.2056 33.12 28.0465 34.4285 25.7173 36.7577C23.3881 39.0869 22.0796 42.246 22.0796 45.54C22.0995 46.0022 22.1456 46.463 22.2176 46.92H46.7816ZM34.4996 35.88C36.8217 35.883 39.0654 36.7211 40.8208 38.2412C42.5762 39.7613 43.7264 41.8621 44.0613 44.16H24.9378C25.2727 41.8621 26.4229 39.7613 28.1783 38.2411C29.9338 36.721 32.1774 35.883 34.4996 35.88V35.88Z" fill="#06A0E3"/>
<path d="M23.4596 55.1999H45.5396C45.9056 55.1999 46.2566 55.0546 46.5154 54.7958C46.7742 54.537 46.9196 54.1859 46.9196 53.8199C46.9196 53.4539 46.7742 53.1029 46.5154 52.8441C46.2566 52.5853 45.9056 52.4399 45.5396 52.4399H23.4596C23.0936 52.4399 22.7426 52.5853 22.4838 52.8441C22.225 53.1029 22.0796 53.4539 22.0796 53.8199C22.0796 54.1859 22.225 54.537 22.4838 54.7958C22.7426 55.0546 23.0936 55.1999 23.4596 55.1999Z" fill="#06A0E3"/>
<path d="M26.2198 2.76H42.7798C43.1458 2.76 43.4969 2.61461 43.7557 2.35581C44.0145 2.09701 44.1598 1.746 44.1598 1.38C44.1598 1.014 44.0145 0.662993 43.7557 0.404193C43.4969 0.145392 43.1458 0 42.7798 0L26.2198 0C25.8538 0 25.5028 0.145392 25.244 0.404193C24.9852 0.662993 24.8398 1.014 24.8398 1.38C24.8398 1.746 24.9852 2.09701 25.244 2.35581C25.5028 2.61461 25.8538 2.76 26.2198 2.76Z" fill="#06A0E3"/>
</g>
<defs>
<clipPath id="clip0">
<rect width="69" height="69" fill="white"/>
</clipPath>
</defs>
</svg>
